!!!!SEGMENT: Wil3023-Or_suis_je_bien_au_pire.krn
!!!id: Wil3023
!!!AGN: Chanson
!!!SCT: Bernstein (1984)
!!!voices: 3
!!!COM: Adrian Willaert
!!!OTL: Or suis je bien au pire
**kern	**kern	**kern
*part3	*part2	*part1
*staff3	*staff2	*staff1
*I"Bassus	*I"Tenor	*I"Superius
*I'B	*I'T	*I'S
*clefF4	*clefGv2	*clefG2
*k[b-]	*k[b-]	*k[b-]
*F:	*F:	*F:
*M2/1	*M2/1	*M2/1
*met(C|)	*met(C|)	*met(C|)
=1	=1	=1
1G	2r	1r
.	2d	.
1G	1e	2r
.	.	2g
=2	=2	=2
1F	1f	1a
1G	1d	1b-y
=3	=3	=3
2D	2r	2a
2.G	2d	2.b-y
.	1d	.
4F	.	4a
4E	.	4g
4D	.	4f
=4	=4	=4
1E	1c	1g
2.D	1d	1f
4D	.	.
=5	=5	=5
2D	2A	2r
2C	2.c	2g
2F	.	2a
.	4B-y	.
2G	4A	2g
.	4G	.
=6	=6	=6
1D	1A	2g
.	.	2f#i
2r	1G	[1g
2d	.	.
=7	=7	=7
2.e	2r	1g]
.	2g	.
4d	.	.
2c	2a	2r
2B-y	2g	2g
=8	=8	=8
1A	2g	1a
.	2f#i	.
2r	2g	1b-y
2G	4r	.
.	4d	.
=9	=9	=9
2A	2c	2a
2G	2d	2.b-y
2G	2G	.
.	.	4a
2F	2d	4g
.	.	4f
=10	=10	=10
1E	4d	1g
.	4c	.
.	4c	.
.	4B-y	.
2.D	2d	1f
.	2d	.
4D	.	.
=11	=11	=11
2C	2.e-i	2r
2C	.	2g
.	4d	.
2F	2c	2a
2G	2B-y	2g
=12	=12	=12
1D	1A	2g
.	.	2f#i
1r	[1G	[1g
=13	=13	=13
2E	1G]	1g]
4E	.	.
4E	.	.
2E	2r	1r
2F	2c	.
=14	=14	=14
2F	4c	1r
.	4c	.
2E	2c	.
4D	2d	2a
4E	.	.
4F	2d	4a
4G	.	4a
=15	=15	=15
2A	2c	2a
1G	4B-y	1b-y
.	4c	.
.	4d	.
.	4e	.
2F	[2f	2a
=16	=16	=16
1c	2f]	1g
.	2e	.
[1F	1f	[1f
=17	=17	=17
1F]	2c	0f]
.	4c	.
.	4c	.
2r	2B-y	.
2F	2c	.
=18	=18	=18
4F	2d	0r
4F	.	.
2E	4c	.
.	4B-y	.
2F	2A	.
[2G	2G	.
=19	=19	=19
4G]	2.B-y	2g
4F	.	.
2E	.	4g
.	4c	4g
2D	2d	2f
2C	2e	2g
=20	=20	=20
2.F	2f	2a
.	4e	4g
4G	4d	4f
2A	2c	4e
.	.	4d
2D	[2f	[2a
=21	=21	=21
2F	4f]	2a]
.	4e	.
2G	1d	4g
.	.	4f
1A	.	1e
.	2c#i	.
=22	=22	=22
1.B-y	1d	2d
.	.	4r
.	.	4d
.	2r	1f
2A	2F	.
=23	=23	=23
1G	1B-y	1g
1F	1c	[1a
=24	=24	=24
1r	1.d	2a]
.	.	1b-y
2r	.	.
2F	[2f	2a
=25	=25	=25
2B-y	2f]	1g
2c	2e	.
2d	2.d	2f
[2B-y	.	2d
.	4c	.
=26	=26	=26
2B-]	4d	1f
.	4e	.
2A	1f	.
1G	.	1g
.	2e	.
=27	=27	=27
2F	0f	1.a
2.d	.	.
4c	.	.
4B-y	.	[2b-y
4A	.	.
=28	=28	=28
2G	2r	2b-]
2F	2f	2a
1c	2f	1g
.	2e	.
=29	=29	=29
2r	2d	1f
2F	2c	.
2F	2d	1r
2E	2e	.
=30	=30	=30
2D	4f	2r
.	4e	.
2G	4d	2b-y
.	4c	.
2G	4B-y	2b-y
.	4c	.
2F	[2d	2a
=31	=31	=31
1E	2d]	1g
.	2c#i	.
1D	2d	2r
.	2A	2f
=32	=32	=32
2r	2B-y	2g
2F	4A	2.a
.	4G	.
2F	2F	.
.	.	4g
2E	2G	[2g
=33	=33	=33
1D	1A	2g]
.	.	2f#i
2B-y	1G	1g
2B-y	.	.
=34	=34	=34
2A	1r	2r
1G	.	2b-y
.	2r	2b-y
2F	2A	2a
=35	=35	=35
2G	2B-y	2g
2D	2A	2f
2E	2G	2g
[2F	2c	[2a
=36	=36	=36
2F]	2c	4a]
.	.	4g
2G	2B-y	1g
1D	1A	.
.	.	2f#i
=37	=37	=37
00Gl	00Gl	00gl
==	==	==
*-	*-	*-
!!!system-decoration: [*]
!!!RDF**kern: i = editorial accidental
!!!RDF**kern: l = terminal long
!!!ENC: Benjamin Ory
!!!END: 2023/10/9
!!!EED: Benjamin Ory
!!!EEV: 2023/10/09
!!!YEC: Copyright 2023 Benjamin Ory, All Rights Reserved
!!!ONB: Translated from MusicXML on 2023/10/09
